!!!COM: Mendelssohn, Felix
!!!CDT: 1809/02/03-1847/11/04
!!!OPR: Sechs vierstimmige Lieder
!!!OTL: Deutschland
!!!OPS: Op. 88
!!!ONM: Nr. 5
!!!OMD: Allegro maestoso, alla marcia
**kern	**text	**text	**dynam	**kern	**text	**text	**dynam	**kern	**text	**text	**dynam	**kern	**text	**text	**dynam
*part4	*part4	*part4	*part4	*part3	*part3	*part3	*part3	*part2	*part2	*part2	*part2	*part1	*part1	*part1	*part1
*staff4	*staff4	*staff4	*	*staff3	*staff3	*staff3	*	*staff2	*staff2	*staff2	*	*staff1	*staff1	*staff1	*
*Ivox	*	*	*	*Ivox	*	*	*	*Ivox	*	*	*	*Ivox	*	*	*
*I"Bass	*	*	*	*I"Tenor	*	*	*	*I"Alt	*	*	*	*I"Sopran	*	*	*
*clefF4	*	*	*	*clefGv2	*	*	*	*clefG2	*	*	*	*clefG2	*	*	*
*k[]	*	*	*	*k[]	*	*	*	*k[]	*	*	*	*k[]	*	*	*
*a:	*	*	*	*a:	*	*	*	*a:	*	*	*	*a:	*	*	*
*M4/4	*	*	*	*M4/4	*	*	*	*M4/4	*	*	*	*M4/4	*	*	*
*met(c)	*	*	*	*met(c)	*	*	*	*met(c)	*	*	*	*met(c)	*	*	*
*MM96	*	*	*	*MM96	*	*	*	*MM96	*	*	*	*MM96	*	*	*
=	=	=	=	=	=	=	=	=	=	=	=	=	=	=	=
*	*v:1	*v:2	*	*	*v:1	*v:2	*	*	*v:1	*v:2	*	*	*v:1	*v:2	*
4E	Durch	Viel	f	4E	Durch	Viel	f	4e	Durch	Viel	f	4e	Durch	Viel	f
=1	=1	=1	=1	=1	=1	=1	=1	=1	=1	=1	=1	=1	=1	=1	=1
4.A	tie-	tau-	.	4.A	tie-	tau-	.	4.a	tie-	tau-	.	4.a	tie-	tau-	.
8A	-fe	-send	.	8A	-fe	-send	.	8a	-fe	-send	.	8a	-fe	-send	.
4.c	Nacht	Her-	.	4.c	Nacht	Her-	.	4.cc	Nacht	Her-	.	4.cc	Nacht	Her-	.
8c	ein	-zen	.	8c	ein	-zen	.	8cc	ein	-zen	.	8cc	ein	-zen	.
=2	=2	=2	=2	=2	=2	=2	=2	=2	=2	=2	=2	=2	=2	=2	=2
4e	Brau-	heim-	.	4e	Brau-	heim-	.	4ee	Brau-	heim-	.	4ee	Brau-	heim-	.
4A	-sen	-lich	.	4A	-sen	-lich	.	4a	-sen	-lich	.	4a	-sen	-lich	.
4B	zieht,	glüh’n,	.	4B	zieht,	glüh’n,	.	4b	zieht,	glüh’n,	.	4b	zieht,	glüh’n,	.
4E	und	und	.	4E	und	und	.	4e	und	und	.	4e	und	und	.
=3	=3	=3	=3	=3	=3	=3	=3	=3	=3	=3	=3	=3	=3	=3	=3
4.A	beugt	har-	.	(8cL	beugt	har-	.	(8eL	beugt	har-	.	4.a	beugt	har-	.
.	.	.	.	8BJ)	.	.	.	8dJ)	.	.	.	.	.	.	.
.	.	.	.	(8AL	die	-ren	.	(8cL	die	-ren	.	.	.	.	.
8A	die	-ren	.	8dJ)	.	.	.	8fJ)	.	.	.	8a	die	-ren	.
4A	knos-	wie	.	(8cL	knos-	wie	.	(8eL	knos-	wie	.	(8aL	knos-	wie	.
.	.	.	.	8BJ)	.	.	.	8dJ)	.	.	.	8g#XJ)	.	.	.
*^	*	*	*	*^	*	*	*	*^	*	*	*	*^	*	*	*
8A	4A	-pen-	das	.	8A	(8AL	-pen-	das	.	8c	(8cL	-pen-	das	.	8a	(8aL	-pen-	das	.
8A	.	-den	.	.	8d	8dJ)	-den	.	.	8f	8fJ)	-den	.	.	8b	8bJ)	-den	.	.
*	*	*	*	*	*	*	*	*	*	*	*	*	*	*	*v	*v	*	*	*
*	*	*	*	*	*	*	*	*	*	*v	*v	*	*	*	*	*	*	*
*	*	*	*	*	*v	*v	*	*	*	*	*	*	*	*	*	*	*
*v	*v	*	*	*	*	*	*	*	*	*	*	*	*	*	*	*
=4	=4	=4	=4	=4	=4	=4	=4	=4	=4	=4	=4	=4	=4	=4	=4
4A	Rei-	mei-	.	4c	Rei-	mei-	.	4e	Rei-	mei-	.	(8.ccL	Rei-	mei-	.
.	.	.	.	.	.	.	.	.	.	.	.	16bJk)	.	.	.
4AA	-ser,	-ne,	.	4c	-ser,	-ne,	.	4e	-ser,	-ne,	.	4a	-ser,	-ne,	.
4r	.	.	.	4r	.	.	.	4r	.	.	.	4r	.	.	.
4E	es	sie	f	4E	es	sie	f	4e	es	sie	f	4e	.	.	f
=5	=5	=5	=5	=5	=5	=5	=5	=5	=5	=5	=5	=5	=5	=5	=5
*^	*	*	*	*^	*	*	*	*^	*	*	*	*^	*	*	*
4.A	4A	klingt	hö-	.	4.A	4A	klingt	hö-	.	4.a	4a	klingt	hö-	.	4.a	4a	klingt	hö-	.
.	8A	.	-ren	.	.	8A	.	-ren	.	.	8a	.	-ren	.	.	8a	.	-ren	.
8A	8A	im	den	.	8A	8A	im	den	.	8a	8a	im	den	.	8a	8a	im	den	.
*	*	*	*	*	*	*	*	*	*	*	*	*	*	*	*v	*v	*	*	*
*	*	*	*	*	*	*	*	*	*	*v	*v	*	*	*	*	*	*	*
*	*	*	*	*	*v	*v	*	*	*	*	*	*	*	*	*	*	*
*v	*v	*	*	*	*	*	*	*	*	*	*	*	*	*	*	*
4.c	Wind	Klang	.	4.c	Wind	Klang	.	4.cc	Wind	Klang	.	4.cc	Wind	Klang	.
8c	ein	und	.	8c	ein	und	.	8cc	ein	und	.	8cc	ein	und	.
=6	=6	=6	=6	=6	=6	=6	=6	=6	=6	=6	=6	=6	=6	=6	=6
4e	al-	hof-	.	4e	al-	hof-	.	4ee	al-	hof-	.	4ee	al-	hof-	.
4A	-tes	-fen	.	4A	-tes	-fen	.	4a	-tes	-fen	.	4a	-tes	-fen	.
*C:	*	*	*	*C:	*	*	*	*C:	*	*	*	*C:	*	*	*
4B	Lied,	kühn,	.	4B	Lied,	kühn,	.	4b	Lied,	kühn,	.	4b	Lied,	kühn,	.
4B	das	dass	.	4B	das	dass	.	4b	das	dass	.	4b	das	dass	.
=7	=7	=7	=7	=7	=7	=7	=7	=7	=7	=7	=7	=7	=7	=7	=7
4.c	Lied	roth	.	(8eL	Lied	roth	.	(8gL	Lied	roth	.	4.cc	Lied	roth	.
.	.	.	.	8dJ)	.	.	.	8fJ)	.	.	.	.	.	.	.
.	.	.	.	(8cL	vom	der	.	(8eL	vom	der	.	.	.	.	.
8c	vom	der	.	8fJ)	.	.	.	8a-XJ)	.	.	.	8cc	vom	der	.
4c	deut-	Tag	.	(8eL	deut-	Tag	.	(8gL	deut-	Tag	.	(8ccL	deut-	Tag	.
.	.	.	.	8dJ)	.	.	.	8fJ)	.	.	.	8bJ)	.	.	.
4c	-schen	er-	.	(8cL	-schen	er-	.	(8eL	-schen	er-	.	(8ccL	-schen	er-	.
.	.	.	.	8fJ)	.	.	.	8a-J)	.	.	.	8ddJ)	.	.	.
=8	=8	=8	=8	=8	=8	=8	=8	=8	=8	=8	=8	=8	=8	=8	=8
4c	Kai-	-schei-	.	4e	Kai-	-schei-	.	4g	Kai-	-schei-	.	(8.eeL	Kai-	-schei-	.
.	.	.	.	.	.	.	.	.	.	.	.	16ddJk)	.	.	.
4C	-ser,	-ne,	.	4e	-ser,	-ne,	.	4g	-ser,	-ne,	.	4cc	-ser,	-ne,	.
4r	.	.	.	4r	.	.	.	4r	.	.	.	4r	.	.	.
4c	das	dass	.	4e	das	dass	.	4g	das	dass	.	(8ccL	das	dass	.
.	.	.	.	.	.	.	.	.	.	.	.	8eeJ)	.	.	.
=9	=9	=9	=9	=9	=9	=9	=9	=9	=9	=9	=9	=9	=9	=9	=9
4.G	Lied	roth	.	4.e	Lied	roth	.	4.cc	Lied	roth	.	4.gg	Lied	roth	.
8G	vom	der	.	8g	vom	der	.	8cc	vom	der	.	8ee	vom	der	.
4.G	deut-	Tag	.	4.f	deut-	Tag	.	4.b	deut-	Tag	.	4.dd	deut-	Tag	.
8G	-schen	er-	.	8g	-schen	er-	.	8b	-schen	er-	.	8ee	-schen	er-	.
=10	=10	=10	=10	=10	=10	=10	=10	=10	=10	=10	=10	=10	=10	=10	=10
4G	Kai-	-schei-	.	4f	Kai-	-schei-	.	4b	Kai-	-schei-	.	4dd	Kai-	-schei-	.
4C	-ser.	-ne.	.	4e	-ser.	-ne.	.	4cc	-ser.	-ne.	.	4cc	-ser.	-ne.	.
4r	.	.	.	4r	.	.	.	4r	.	.	.	4r	.	.	.
*a:	*	*	*	*a:	*	*	*	*a:	*	*	*	*a:	*	*	*
(8CL	Mein	Deutsch-	.	4e	Mein	Deutsch-	.	4cc	Mein	Deutsch-	.	4ee	Mein	Deutsch-	.
8DJ)	.	.	.	.	.	.	.	.	.	.	.	.	.	.	.
=11	=11	=11	=11	=11	=11	=11	=11	=11	=11	=11	=11	=11	=11	=11	=11
4.E^	Herz	-land,	.	4.e	Herz	-land,	.	4.cc^	Herz	-land,	.	4.ee^	Herz	-land,	.
8E	ist	du	.	8e	ist	du	.	8g#X	ist	du	.	8b	ist	du	.
4E	jung,	schön	.	4e	jung,	schön	.	4g#	jung,	schön	.	4b	jung,	schön	.
4E	mein	ge-	.	4e	mein	ge-	.	4a	mein	ge-	.	4cc	mein	ge-	.
=12	=12	=12	=12	=12	=12	=12	=12	=12	=12	=12	=12	=12	=12	=12	=12
4.E^	Herz	-schmück-	.	4.e^	Herz	-schmück-	.	4.a^	Herz	-schmück-	.	4.cc^	Herz	-schmück-	.
8E	ist	-te	.	8B	ist	-te	.	8e	ist	-te	.	8g#X	ist	-te	.
4E	schwer	Braut,	.	4B	schwer	Braut,	.	4e	schwer	Braut,	.	4g#	schwer	Braut,	.
4E	und	schon	.	4e	und	schon	.	4cc	und	schon	.	4ee	und	schon	.
=13	=13	=13	=13	=13	=13	=13	=13	=13	=13	=13	=13	=13	=13	=13	=13
4.E^	kann	träumt	.	4.e^	kann	träumt	.	4.cc^	kann	träumt	.	4.ee^	kann	träumt	.
8E	nicht	sie	.	8e	nicht	sie	.	8g#X	nicht	sie	.	8b	nicht	sie	.
4E	las-	leis’	.	4e	las-	leis’	.	4g#	las-	leis’	.	4b	las-	leis’	.
*^	*	*	*	*^	*	*	*	*^	*	*	*	*^	*	*	*
8E	4E	-sen	und	.	8e	4e	-sen	und	.	8g#	4g#	-sen	und	.	8b	4b	-sen	und	.
8E	.	vom	.	.	8e	.	vom	.	.	8g#	.	vom	.	.	8b	.	vom	.	.
*	*	*	*	*	*	*	*	*	*	*	*	*	*	*	*v	*v	*	*	*
*	*	*	*	*	*	*	*	*	*	*v	*v	*	*	*	*	*	*	*
*	*	*	*	*	*v	*v	*	*	*	*	*	*	*	*	*	*	*
*v	*v	*	*	*	*	*	*	*	*	*	*	*	*	*	*	*
=14	=14	=14	=14	=14	=14	=14	=14	=14	=14	=14	=14	=14	=14	=14	=14
2E^	Lau-	lei-	.	2e^	Lau-	lei-	.	2a^	Lau-	lei-	.	2cc^	Lau-	lei-	.
4E	-schen,	-ser,	.	4B	-schen,	-ser,	.	4e	-schen,	-ser,	.	4g#X	-schen,	-ser,	.
4E	und	schon	pp	4E	und	schon	pp	4e	und	schon	pp	4e	und	schon	pp
=15	=15	=15	=15	=15	=15	=15	=15	=15	=15	=15	=15	=15	=15	=15	=15
4.F	kann	träumt	.	4.F	kann	träumt	.	4.f	kann	träumt	.	4.f	kann	träumt	.
8F	nicht	sie	.	8F	nicht	sie	.	8f	nicht	sie	.	8f	nicht	sie	.
4E	las-	leis’	.	4E	las-	leis’	.	4e	las-	leis’	.	4e	las-	leis’	.
*^	*	*	*	*^	*	*	*	*^	*	*	*	*^	*	*	*
8E	4E	-sen	und	.	8E	4E	-sen	und	.	8e	4e	-sen	und	.	8e	4e	-sen	und	.
8E	.	vom	.	.	8E	.	vom	.	.	8e	.	vom	.	.	8e	.	vom	.	.
*	*	*	*	*	*	*	*	*	*	*	*	*	*	*	*v	*v	*	*	*
*	*	*	*	*	*	*	*	*	*	*v	*v	*	*	*	*	*	*	*
*	*	*	*	*	*v	*v	*	*	*	*	*	*	*	*	*	*	*
*v	*v	*	*	*	*	*	*	*	*	*	*	*	*	*	*	*
=16	=16	=16	=16	=16	=16	=16	=16	=16	=16	=16	=16	=16	=16	=16	=16
2D#X	Lau-	lei-	.	2D#X	Lau-	lei-	.	2d#X	Lau-	lei-	.	2d#X	Lau-	lei-	.
4E	-schen,	-ser,	.	4E	-schen,	-ser,	.	4e	-schen,	-ser,	.	4e	-schen,	-ser,	.
4E	es	wann	p	4E	es	wann	p	4e	es	wann	p	4e	es	wann	p
=17	=17	=17	=17	=17	=17	=17	=17	=17	=17	=17	=17	=17	=17	=17	=17
4AA	klingt,	weckst	.	(8AL	klingt,	weckst	.	(8cL	klingt,	weckst	.	4e	klingt,	weckst	.
.	.	.	.	8EJ)	.	.	.	8BJ)	.	.	.	.	.	.	.
4AA	als	du	.	(8CL	als	du	.	(8AL	als	du	.	4e	als	du	.
.	.	.	.	8EJ)	.	.	.	8BJ)	.	.	.	.	.	.	.
4AA	zög’	sie	.	(8AL	zög’	sie	.	(8cL	zög’	sie	.	4e	zög’	sie	.
.	.	.	.	8EJ)	.	.	.	8BJ)	.	.	.	.	.	.	.
8AA	in	mit	.	8A	in	mit	.	8c	in	mit	.	8e	in	mit	.
8AA	den	Trom-	.	8B	den	Trom-	.	8d	den	Trom-	.	8e	den	Trom-	.
=18	=18	=18	=18	=18	=18	=18	=18	=18	=18	=18	=18	=18	=18	=18	=18
4AA	Wol-	-me-	.	(8cL	Wol-	-me-	.	(8eL	Wol-	-me-	.	(8aL	Wol-	-me-	.
.	.	.	.	8BJ)	.	.	.	8dJ)	.	.	.	8eJ)	.	.	.
*	*	*	*	*^	*	*	*	*^	*	*	*	*^	*	*	*
8AA	-ken	-ten-	.	8A	(8AL	-ken	-ten-	.	8c	(8cL	-ken	-ten-	.	8c	(8cL	-ken	-ten-	.
8AA	ein	.	.	8B	8BJ)	ein	.	.	8d	8dJ)	ein	.	.	8e	8eJ)	ein	.	.
*	*	*	*	*	*	*	*	*	*	*	*	*	*	*v	*v	*	*	*
*	*	*	*	*	*	*	*	*	*v	*v	*	*	*	*	*	*	*
*	*	*	*	*v	*v	*	*	*	*	*	*	*	*	*	*	*
4AA	Heer,	-laut,	.	(8cL	Heer,	-laut,	.	(8eL	Heer,	-laut,	.	4a	Heer,	-laut,	.
.	.	.	.	8BJ)	.	.	.	8dJ)	.	.	.	.	.	.	.
8AA	in	mit	.	(8cL	es	wann	.	(8eL	es	wann	.	4a	es	wann	.
8AA	den	Trom-	.	8dJ)	.	.	.	8fJ)	.	.	.	.	.	.	.
=19	=19	=19	=19	=19	=19	=19	=19	=19	=19	=19	=19	=19	=19	=19	=19
2.A	Wol-	-me-	.	(8eL	klingt,	weckst	.	(8aL	klingt,	weckst	.	(8ccL	klingt,	weckst	.
.	.	.	.	8dJ)	.	.	.	8eJ)	.	.	.	8bJ)	.	.	.
.	.	.	.	(8cL	als	du	.	(8cL	als	du	.	(8aL	als	du	.
.	.	.	.	8dJ)	.	.	.	8eJ)	.	.	.	8bJ)	.	.	.
.	.	.	.	(8eL	zög’	sie	.	(8aL	zög’	sie	.	(8ccL	zög’	sie	.
.	.	.	.	8dJ)	.	.	.	8eJ)	.	.	.	8bJ)	.	.	.
*^	*	*	*	*	*	*	*	*	*	*	*	*	*	*	*
8A	4A	-ken	-ten-	.	8e	in	mit	.	8a	in	mit	.	8cc	in	mit	.
8A	.	ein	.	.	8f	den	Trom	.	8b	den	Trom-	.	8dd	den	Trom-	.
*v	*v	*	*	*	*	*	*	*	*	*	*	*	*	*	*	*
=20	=20	=20	=20	=20	=20	=20	=20	=20	=20	=20	=20	=20	=20	=20	=20
2.A	Heer,	-laut,	.	4e	Wol-	-me-	.	(8ccL	Wol-	-me-	.	(8eeL	Wol-	-me-	.
.	.	.	.	.	.	.	.	8bJ)	.	.	.	8ddJ)	.	.	.
*	*	*	*	*^	*	*	*	*^	*	*	*	*^	*	*	*
.	.	.	.	8e	4e	-ken	-ten-	.	8a	(8aL	-ken	-ten-	.	8cc	(8ccL	-ken	-ten-	.
.	.	.	.	8e	.	ein	.	.	8b	8bJ)	ein	.	.	8dd	8ddJ)	ein	.	.
*	*	*	*	*	*	*	*	*	*	*	*	*	*	*v	*v	*	*	*
*	*	*	*	*	*	*	*	*	*v	*v	*	*	*	*	*	*	*
*	*	*	*	*v	*v	*	*	*	*	*	*	*	*	*	*	*
.	.	.	.	4e	Heer,	-laut,	.	4cc	Heer,	-laut,	.	4ee	Heer,	-laut,	.
4AA	.	.	ff	4d	es	wann	ff	4f	es	wann	ff	4aa	es	wann	ff
=21	=21	=21	=21	=21	=21	=21	=21	=21	=21	=21	=21	=21	=21	=21	=21
*^	*	*	*	*^	*	*	*	*^	*	*	*	*^	*	*	*
4.A	4A	klingt	führst	.	4.c	4c	klingt	führst	.	4.e	4e	klingt	führst	.	4.ee	4ee	klingt	führst	.
.	8A	.	du	.	.	8c	.	du	.	.	8e	.	du	.	.	8ee	.	du	.
8A	8A	wie	sie	.	8c	8c	wie	sie	.	8e	8e	wie	sie	.	8cc	8cc	wie	sie	.
*	*	*	*	*	*	*	*	*	*	*	*	*	*	*	*v	*v	*	*	*
*	*	*	*	*	*	*	*	*	*	*v	*v	*	*	*	*	*	*	*
*	*	*	*	*	*v	*v	*	*	*	*	*	*	*	*	*	*	*
*v	*v	*	*	*	*	*	*	*	*	*	*	*	*	*	*	*
4A	Ad-	heim,	.	4c	Ad-	heim,	.	4e	Ad-	heim,	.	4cc	Ad-	heim,	.
4A	-lers	mein	.	4d	-lers	mein	.	4f	-lers	mein	.	4aa	-lers	mein	.
=22	=22	=22	=22	=22	=22	=22	=22	=22	=22	=22	=22	=22	=22	=22	=22
2c	Rau-	Kai-	.	2c	Rau-	Kai-	.	2e	Rau-	Kai-	.	2ee	Rau-	Kai-	.
4A	-schen,	-ser,	.	4c	-schen,	-ser,	.	4e	-schen,	-ser,	.	4cc	-schen,	-ser,	.
(8cL	es	wann	.	4c	wie	sie	.	4a	wie	sie	.	4a	wie	sie	.
8BJ)	.	.	.	.	.	.	.	.	.	.	.	.	.	.	.
=23	=23	=23	=23	=23	=23	=23	=23	=23	=23	=23	=23	=23	=23	=23	=23
(8AL	klingt	führst	.	2.c	Ad-	heim,	.	2.a	Ad-	heim,	.	2.ee	Ad-	heim,	.
8GJ)	.	.	.	.	.	.	.	.	.	.	.	.	.	.	.
*^	*	*	*	*	*	*	*	*	*	*	*	*	*	*	*
(8FL	8F	wie	du	.	.	.	.	.	.	.	.	.	.	.	.	.
8EJ)	8E	.	sie	.	.	.	.	.	.	.	.	.	.	.	.	.
*v	*v	*	*	*	*	*	*	*	*	*	*	*	*	*	*	*
(8DL	Ad-	heim,	.	.	.	.	.	.	.	.	.	.	.	.	.
8CJ)	.	.	.	.	.	.	.	.	.	.	.	.	.	.	.
(8BBL	-lers	mein	.	4e	-lers	mein	.	4a	-lers	mein	.	4cc	-lers	mein	.
8AAJ)	.	.	.	.	.	.	.	.	.	.	.	.	.	.	.
=24	=24	=24	=24	=24	=24	=24	=24	=24	=24	=24	=24	=24	=24	=24	=24
2E	Rau-	Kai-	.	2d	Rau-	Kai-	.	2g#X	Rau-	Kai-	.	2b	Rau-	Kai-	.
4AA;	-schen.	-ser!	.	4c;	-schen.	-ser!	.	4a;	-schen.	-ser!	.	4a;	-schen.	-ser!	.
==	==	==	==	==	==	==	==	==	==	==	==	==	==	==	==
*-	*-	*-	*-	*-	*-	*-	*-	*-	*-	*-	*-	*-	*-	*-	*-
!!!system-decoration: ([s1,s2,s3,s4])
!!!RDF**kern: i = editorial accidental
!!!AGN: Choral
!!!YOR: https://mdz-nbn-resolving.de/details:bsb00026635
!!!YOO: München, Bayerische Staatsbibliothek
!!!URL-scan: https://www.digitale-sammlungen.de/de/view/bsb00026635?page=7
!!!EED: Wolfgang Drescher
!!!END: 2024/11/15
!!!ENC: Wolfgang Drescher
!!!EEV: 2024/12/17
!!!title: @{OPS} @{ONM}. @{OTL}